svg/transport/hood_fill.svg

<?xml version="1.0" encoding="UTF-8"?>
<svg width="24px" height="24px" viewBox="0 0 24 24" version="1.1" xmlns="http://www.w3.org/2000/svg" xmlns:xlink="http://www.w3.org/1999/xlink">
    <title>hood_fill</title>
    <g id="Icon" stroke="none" stroke-width="1" fill="none" fill-rule="evenodd">
        <g id="Transport" transform="translate(-816.000000, -240.000000)">
            <g id="hood_fill" transform="translate(816.000000, 240.000000)">
                <path d="M24,0 L24,24 L0,24 L0,0 L24,0 Z M12.5935,23.2578 L12.5819,23.2595 L12.5109,23.295 L12.4919,23.2987 L12.4767,23.295 L12.4057,23.2595 C12.3958,23.2564 12.387,23.259 12.3821,23.2649 L12.378,23.2758 L12.3609,23.7031 L12.3659,23.7235 L12.3769,23.7357 L12.4805,23.8097 L12.4953,23.8136 L12.5071,23.8097 L12.6107,23.7357 L12.6233,23.7197 L12.6267,23.7031 L12.6096,23.2758 C12.6076,23.2657 12.601,23.2593 12.5935,23.2578 Z M12.8584,23.1453 L12.8445,23.1473 L12.6598,23.2397 L12.6499,23.2499 L12.6472,23.2611 L12.6651,23.6906 L12.6699,23.7034 L12.6784,23.7105 L12.8793,23.8032 C12.8914,23.8069 12.9022,23.803 12.9078,23.7952 L12.9118,23.7812 L12.8777,23.1665 C12.8753,23.1546 12.8674,23.147 12.8584,23.1453 Z M12.143,23.1473 C12.1332,23.1424 12.1222,23.1453 12.1156,23.1526 L12.1099,23.1665 L12.0758,23.7812 C12.0751,23.7927 12.0828,23.8019 12.0926,23.8046 L12.1083,23.8032 L12.3092,23.7105 L12.3186,23.7024 L12.3225,23.6906 L12.3404,23.2611 L12.3372,23.2485 L12.3278,23.2397 L12.143,23.1473 Z" id="MingCute" fill-rule="nonzero"></path>
                <path d="M5.75,3.94804 C6.5760125,3.53503375 7.55720469,3.61287027 8.30483358,4.13819203 L8.45113,4.24921 L12.9756,7.95108 L13.2456499,7.77994099 L13.2456499,7.77994099 L13.8107501,7.40824146 L13.8107501,7.40824146 L14.7518379,6.77961534 C14.864351,6.70516714 14.9798571,6.62921286 15.0987,6.55178 C16.3135,5.76027 17.7489,4.91104 19.502,4.33991 C19.7765,4.25048 20.0779438,4.17251937 20.3952781,4.10388078 L20.7175,4.03827 L21.2826,6.98456 C20.9221,7.05372 20.639,7.12468 20.4313,7.19235 C19.0496,7.64249 17.8726,8.32506 16.7364,9.06535 L16.3286994,9.33445918 L16.3286994,9.33445918 L15.4858904,9.89850566 C14.7715984,10.3735867 14.0328875,10.8457625 13.3107,11.1987 C12.611,11.5406 11.7348,11.7625 10.9327,11.9385 L10.2943109,12.0734031 L10.2943109,12.0734031 L9.02641281,12.3305344 C8.8183625,12.3737375 8.612705,12.4177 8.41058,12.4633 C7.58515,12.6495 6.89039,12.8464 6.36464,13.0846 C6.11514909,13.1976 5.94712512,13.3006 5.83494169,13.3854295 L5.72548494,13.47798 C5.69684044,13.5055743 5.67549035,13.5297384 5.65979455,13.5499494 L5.62803,13.5982 L5.62803,13.5982 C5.38247,14.0782 5.50716,15.1489 6.0642,15.4059 C6.157032,15.4487 6.2843856,15.483308 6.43908768,15.4954392 L6.56013,15.5001 L9.83688,15.5001 C10.3986,14.3176 11.6039,13.5001 13.0001,13.5001 C14.32649,13.5001 15.4805025,14.2378937 16.0741753,15.3255191 L16.1632,15.5001 L21.0001,15.5001 L21.0001,18.5001 L16.1632,18.5001 C15.6015,19.6826 14.3963,20.5001 13.0001,20.5001 C11.67371,20.5001 10.5196073,19.7623062 9.92589969,18.6746809 L9.83687,18.5001 L6.56013,18.5001 C5.45156,18.5001 4.07768,18.0771 3.31135,16.8077 L3.17824362,16.5765183 C3.15582638,16.5356405 3.13336368,16.4936168 3.11096198,16.450489 L2.97813535,16.1788095 C2.52176524,15.1839067 2.18618462,13.7390538 2.95724,12.2319 C3.44656,11.2754 4.33691,10.7096 5.12685,10.3518 C5.93992,9.98354 6.87786,9.73364 7.75045,9.53681 L8.39441667,9.39765704 L8.39441667,9.39765704 L9.68575,9.13554 L6.80202,6.77613 L5.67087,7.3417 C4.92991,7.71219 4.0289,7.41185 3.65841,6.67088 C3.30972294,5.97350588 3.55525706,5.13435737 4.20309312,4.72916716 L4.32923,4.65842 L5.75,3.94804 Z M13.0001,16.5001 C12.7239,16.5001 12.5001,16.724 12.5001,17.0001 C12.5001,17.2763 12.7239,17.5001 13.0001,17.5001 C13.2762,17.5001 13.5001,17.2763 13.5001,17.0001 C13.5001,16.724 13.2762,16.5001 13.0001,16.5001 Z" id="形状" fill="#09244B"></path>
            </g>
        </g>
    </g>
</svg>

<svg xmlns="http://www.w3.org/2000/svg" width="24" height="24"><g fill="none" fill-rule="evenodd"><path d="M24 0v24H0V0h24ZM12.594 23.258l-.012.002-.071.035-.02.004-.014-.004-.071-.036c-.01-.003-.019 0-.024.006l-.004.01-.017.428.005.02.01.013.104.074.015.004.012-.004.104-.074.012-.016.004-.017-.017-.427c-.002-.01-.009-.017-.016-.018Zm.264-.113-.014.002-.184.093-.01.01-.003.011.018.43.005.012.008.008.201.092c.012.004.023 0 .029-.008l.004-.014-.034-.614c-.003-.012-.01-.02-.02-.022Zm-.715.002a.023.023 0 0 0-.027.006l-.006.014-.034.614c0 .012.007.02.017.024l.015-.002.201-.093.01-.008.003-.011.018-.43-.003-.012-.01-.01-.184-.092Z"/><path fill="#09244B" d="M5.75 3.948a2.5 2.5 0 0 1 2.555.19l.146.111 4.525 3.702.27-.171.565-.372.94-.628.348-.228c1.215-.792 2.65-1.641 4.403-2.212.274-.09.576-.167.893-.236l.323-.066.565 2.947c-.36.069-.644.14-.852.207-1.381.45-2.558 1.133-3.695 1.873l-.407.27-.843.564c-.714.475-1.453.947-2.175 1.3-.7.342-1.576.563-2.378.74l-.639.134-1.268.258c-.208.043-.413.087-.615.132-.826.187-1.52.383-2.046.622-.25.113-.418.216-.53.3l-.11.093a.683.683 0 0 0-.065.072l-.032.048c-.246.48-.12 1.55.436 1.808.093.043.22.077.375.09l.121.004h3.277a3.5 3.5 0 0 1 6.237-.174l.09.174H21v3h-4.837a3.5 3.5 0 0 1-6.237.175l-.09-.175H6.56c-1.108 0-2.482-.423-3.249-1.692l-.133-.231a6.338 6.338 0 0 1-.067-.127l-.133-.271c-.456-.995-.792-2.44-.02-3.947.489-.957 1.379-1.522 2.169-1.88.813-.368 1.75-.618 2.623-.815l.644-.14 1.292-.261-2.884-2.36-1.131.566a1.5 1.5 0 0 1-1.468-2.613l.126-.07 1.421-.711ZM13 16.5a.5.5 0 1 0 0 1 .5.5 0 0 0 0-1Z"/></g></svg>
